X:376
T:Next Best Thing, The
M:C|
C:© Paul Gitlitz 2014
K:G
FD|:"C"CE2G "D"FDFD|"C"CEGF- "D"FGA2|"C"CEGE "D"FGAc|"G"Bcd2 "D"A2FD|!
"C"CE2G "D"FDFD|"C"CEGF- "D"FGA2|"Em"dBce "C"BGAc|"D"AGF2 D2FD:|!
|:"Am"cBAG EGAc|"Em"BAGE "G"DEGB|"D"AGFD CDFA|"Em"BAGE "D"DGAB|!
"Am"cBAG EGAc|"Em"BAGE "G"DEGB|"D"ADBD cD^cD|1"D"dedc B2A2:|2"D"d6|]
W: Jazzy chords
FD|:"C6"CE2G "D7"FDFD|"C6"CEGF- "D7"FGA2|"C6"CEGE "D7"FGAc|"G"Bcd2 "D9"A2FD|!
"C6"CE2G "D7"FDFD|"C6"CEGF- "D9"FGA2|"Em7"dBce "C6"BGAc|"D9"AGF2 D2FD:|!
|:"Am7"cBAG "Adim7"EGAc|"Em7"BAGE "Bdim7"DEGB|"Am7"AGFD "D7"CDFA|"Em7"BAGE "Em/D"DGAB|!
"Am7"cBAG "Adim7"EGAc|"Em7"BAGE "Bdim7"DEGB|"D7"ADBD cD^cD|1"D9"dedc B2A2:|2"D9"d6|]
